X:1
T:096 - Deslumbrante
T:Letra: Antônio José dos Santos Neves (1827-1874)
T:Música: Robert Lowry (1826-1899)
M:4/4
L:1/4
K:E
V:1
"E"GGGB | B A/G/ "B7"AF | FF F/G/ A/B/ | cB"E"B z | GGGB | "B7"B A/G/ AF | F/G/ A/B/ cB | "E"E3z | "A"cc c/d/ e/c/ | "E"BBBG | "B7"FF F/G/ A/B/ | cB"E"B z | "A"cc c/d/ e/c/ | "E"BBBG | "B7"F/G/ A/B/ cB | "E"E3z |]
w: 1.~Se nos ce-gao sol ar_den-te, Quan-do vis_toem_ seu ful-gor, Quem con-tem-pla-rá a_que-le Que do sol é Cri-a-dor? Pa-tri-ar_cas,_ nem pro-fe-tas O che-ga_ram_ aa-vis-tar, Nem A-dão_ che_gou a vê-Lo, An-tes mes-mo de pe-car.
w: 2.~Luz, praa qual o sol é_ tre-vas, Quem Te po_de_ con-tem-plar? Nos-sos o-lhos nus, hu_ma-nos, Não Te po-dem en-ca-rar. Fo-goem ci_ma_ daar-ca san-ta, Sar-çaar-den_te_ no Si-nai, São fi-gu_ras_ só da gló-ria Do Se-nhor, doe-ter-no Pai.
w: 3.~Pa-ra ter-mos nós com_ E-le Fran-cae do_ce_ co-mu-nhão, Cris-to,o Fi-lho, fez-se_ car-ne, Fez-se nos-sa re-den-ção. Pa-ra que_ na_ gló-riae-ter-na Nós mi-re_mo_Lo sem véu, Cris-to pa_de_ceu a mor-te, No-vaen-tra-daa-brin-doao céu.
W:
W:
W: 1. Se nos cega o sol ardente,
W: Quando visto em seu fulgor,
W: Quem contemplará aquele
W: Que do sol é Criador?
W: Patriarcas, nem profetas
W: O chegaram a avistar,
W: Nem Adão chegou a vê-Lo,
W: Antes mesmo de pecar.
W: 
W: 2. Luz, pra a qual o sol é trevas,
W: Quem Te pode contemplar?
W: Nossos olhos nus, humanos,
W: Não Te podem encarar.
W: Fogo em cima da arca santa,
W: Sarça ardente no Sinai,
W: São figuras só da glória
W: Do Senhor, do eterno Pai.
W: 
W: 
W: 
W: 3. Para termos nós com Ele
W: Franca e doce comunhão,
W: Cristo, o Filho, fez-se carne,
W: Fez-se nossa redenção.
W: Para que na glória eterna
W: Nós miremo-Lo sem véu,
W: Cristo padeceu a morte,
W: Nova entrada abrindo ao céu.
W:
W:





